packages/core/src/svgs/the.svg

<svg width="24" height="24" viewBox="0 0 24 24" fill="none" xmlns="http://www.w3.org/2000/svg">
<g clip-path="url(#clip0_31_19651)">
<path d="M0 0H24V24H0V0Z" fill="url(#paint0_linear_31_19651)"/>
<path d="M4.28577 7.28564H9.00005V8.57136H4.28577V7.28564ZM4.28577 8.99993H9.00005V10.2856H4.28577V8.99993ZM9.00005 10.7142H4.28577V12.6385L5.57148 12.5356V16.7142H7.71434V12.5356L9.00005 12.6385V10.7142ZM9.42862 7.28564H11.5715V8.57136H9.42862V7.28564ZM12.8572 7.28564H15.0001V8.57136H12.8572V7.28564ZM11.5715 8.99993H9.42862V10.2856H11.5715V8.99993ZM9.42862 10.7142H11.5715V12.4285H12.8572V10.7142H15.0001V16.7142H12.8572V14.1428H11.5715V16.7142H9.42862V10.7142ZM15.0001 8.99993H12.8572V10.2856H15.0001V8.99993ZM15.4286 7.28564H19.7143V8.57136H15.4286V7.28564ZM15.4286 8.99993H19.7143V10.2856H15.4286V8.99993ZM15.4286 10.7142H19.7143V12.4285H18.0001V12.8571H19.7143V14.5714H18.0001V14.9999H19.7143V16.7142H15.4286V10.7142Z" fill="white"/>
</g>
<defs>
<linearGradient id="paint0_linear_31_19651" x1="4.46571" y1="4.16143" x2="29.2071" y2="32.58" gradientUnits="userSpaceOnUse">
<stop stop-color="#1A1E21"/>
<stop offset="1" stop-color="#06060A"/>
</linearGradient>
<clipPath id="clip0_31_19651">
<rect width="24" height="24" fill="white"/>
</clipPath>
</defs>
</svg>

<svg xmlns="http://www.w3.org/2000/svg" width="24" height="24" fill="none" viewBox="0 0 24 24"><g clip-path="url(#a)"><path fill="url(#b)" d="M0 0h24v24H0z"/><path fill="#fff" d="M4.286 7.286H9V8.57H4.286zm0 1.714H9v1.286H4.286zM9 10.714H4.286v1.925l1.285-.103v4.178h2.143v-4.178L9 12.639zm.429-3.428h2.143V8.57H9.429zm3.428 0H15V8.57h-2.143zM11.572 9H9.429v1.286h2.143zm-2.143 1.714h2.143v1.714h1.285v-1.714H15v6h-2.143v-2.571h-1.285v2.571H9.429zM15 9h-2.143v1.286H15zm.429-1.714h4.285V8.57H15.43zm0 1.714h4.285v1.286H15.43zm0 1.714h4.285v1.714H18v.43h1.714v1.713H18V15h1.714v1.714H15.43z"/></g><defs><linearGradient id="b" x1="4.466" x2="29.207" y1="4.161" y2="32.58" gradientUnits="userSpaceOnUse"><stop stop-color="#1A1E21"/><stop offset="1" stop-color="#06060A"/></linearGradient><clipPath id="a"><path fill="#fff" d="M0 0h24v24H0z"/></clipPath></defs></svg>
